X: 1018
T: Hicaz Aranağme (Curcuna)
C: ?
O: Turkey
F: http://compmusic.upf.edu/node/140
N: hicaz--aranagme--curcuna--1--
N: makam= hicaz
N: form= aranagme
N: usul= curcuna = 10/8
M: 10/8
L: 1/16
K: C _7/8B ^f ^c 
Q: 1/4=180
%%MIDI tuningsystem comma53
d8-d2d2 e2c4z2  | B8-B2B2 c2A4z2  | =f2e2 d2d2 c2c2 B2B2 A2G2  | 
w:  ARANAĞME  |   |   | 
d18z2  | =f8-=f2f2 g2e4z2  | d8-d2d2 e2c4z2  | \
w:   |   |   | 
B2A2 G2e2 d2c2 B2B4A2  | 
w:   | 
A4 =f2e2 d2c2 B2A4z2  | d8-d2d2 e2c4z2  | \
w:   |  ARANAĞME  | 
B8-B2B2 c2A4z2  | =f2e2 d2d2 c2c2 B2B2 A2G2  | 
w:   |   | 
d18z2  | =f8-=f2f2 g2e4z2  | d8-d2d2 e2c4z2  | \
w:   |   |   | 
B2A2 G2e2 d2c2 B2B4A2  | 
w:   | 
A4 =f2e2 d2c2 B2A4z2  | |


